X: 37916
T: Southern Hill, The
R: reel
M: 4/4
K: Adorian
A3 B AE E2|GABG dGBG|A3 B AE E2|GABG d3 B|
BAAB AE E2|GABG dGBd|cA A2 BE E2|GABG A3 B:|
A3 e de gz|edBA BG G2|A3 e de gz|edBA B3 G|
A3 e de gz|edBA BG AB|cA A2 BE E2|DEGB A3 B|
A3 e de gz|edBA BG G2|A3 e de gz|edBA B3 G|
A3 e de gz|edBA BG AB|cA A2 BE E2|GABG A3 B||

